X: 49
T:Merry Blacksmith, The
R:reel
Z:Vancouver
M:4/4
L:1/8
Q:300
K:D
AB|"D"d2 dA BAFA|ABdA BAFA|ABde f2 ed|"A"Beed egfe|
 "D"d2 dA BAFA|ABdA BAFA|"A"ABde fedB|"D"AFEF D2:|
"D"fg|abag fgfd|d2 dA BAFA|ABde f2ed|"A"Beed egfe|
"D"abag fgfe|d2 dA BAFA|"A"ABde fedB|"D"AFEF D2:|

